packages/core/src/svgs/tokens/mono/RLB.svg

<svg width="24" height="24" viewBox="0 0 24 24" fill="none" xmlns="http://www.w3.org/2000/svg">
<path d="M12.0966 5.85278L12.2319 5.86453C12.5729 5.89394 12.5729 5.9057 12.2319 5.89394L11.5967 5.89981C11.2144 5.91157 10.8439 5.91746 10.4618 5.91746L9.87367 5.92922H9.77957C9.63255 5.92922 9.50906 5.92922 9.36791 6.04096C8.50462 6.72574 7.79866 7.58814 7.29789 8.56969C7.27437 8.61085 7.22144 8.65789 7.16852 8.66378C6.25498 8.78088 5.34149 8.8985 4.42807 9.01662L4.42923 9.0234L4.43396 9.02838H4.43985C5.1912 9.11369 5.94198 9.20385 6.69217 9.2989C6.77016 9.30892 6.8488 9.3129 6.9274 9.3107L6.93916 9.32237C6.94078 9.32607 6.94162 9.33019 6.94162 9.33417C6.94162 9.33828 6.94078 9.34226 6.93916 9.34597C6.30405 11.1102 6.29816 12.8862 6.93916 14.6622V14.6739C6.9377 14.6763 6.93569 14.6784 6.93329 14.6798C6.10037 14.7891 5.26727 14.897 4.43396 15.0032L4.43985 15.015L7.18615 15.3384C7.205 15.3413 7.22287 15.3487 7.23824 15.3599C7.25361 15.3712 7.266 15.386 7.27437 15.4032C7.78011 16.4028 8.48581 17.2673 9.40908 17.9907C9.45613 18.0319 9.53846 18.073 9.60315 18.073C10.5519 18.0878 11.5007 18.1036 12.4494 18.1201C12.1671 18.1495 11.8908 18.1729 11.6144 18.1788L11.438 18.2024L11.2968 18.22L11.0498 18.2377C10.5676 18.2729 10.0854 18.3082 9.60903 18.3553L3.00493 18.9787L2.72266 19.008C2.52271 19.0316 2.29336 19.061 2.08165 19.0669C2.05836 19.0687 2.03601 19.0768 2.01696 19.0904C1.99345 19.1081 1.99345 19.114 2.02285 19.114H2.30512C2.64033 19.114 2.97553 19.1315 3.30485 19.1551L3.82824 19.1845C6.98863 19.311 10.1486 19.4482 13.3081 19.5961L13.655 19.6196C13.9197 19.6373 14.1842 19.6549 14.4548 19.6373H14.4901C16.3963 19.5809 18.2153 18.8252 19.6005 17.5143C20.3655 16.7976 20.9738 15.9301 21.3867 14.9664C21.7997 14.0029 22.0084 12.9641 21.9997 11.9158C21.9844 10.4932 21.5693 9.1037 20.8018 7.90579C20.0345 6.70786 18.9457 5.74988 17.6598 5.14121C16.4622 4.56711 15.1404 4.30033 13.8137 4.36494C12.7928 4.4197 11.7715 4.46675 10.7499 4.50608C10.5441 4.51784 10.3441 4.53548 10.1501 4.5296L9.38556 4.56489C8.82325 4.59624 8.26062 4.62173 7.69778 4.64133C6.12396 4.71947 4.54987 4.79199 2.97553 4.85892C2.6462 4.87657 2.33453 4.88833 2.04637 4.88833C1.99932 4.88833 1.98756 4.90009 2.02872 4.92949L2.07578 4.94125C2.2816 4.94125 2.48743 4.9589 2.69326 4.98242L3.10491 5.02358C5.22815 5.23047 7.3511 5.44022 9.47378 5.65282C9.94423 5.69987 10.4382 5.73515 10.9617 5.77044C11.0909 5.77044 11.2144 5.7822 11.3438 5.79985L11.7438 5.82924L12.0966 5.85865V5.85278ZM17.1365 12.004C17.1333 12.3825 17.0558 12.7565 16.9081 13.1051C16.7604 13.4534 16.5456 13.7693 16.2758 14.0347C16.0061 14.3002 15.6866 14.5099 15.3359 14.6518C14.985 14.7938 14.6097 14.8651 14.2313 14.8621C13.8528 14.8651 13.4776 14.7938 13.1268 14.6518C12.776 14.5099 12.4565 14.3002 12.1868 14.0347C11.917 13.7693 11.7022 13.4534 11.5546 13.1051C11.4069 12.7565 11.3293 12.3825 11.3263 12.004C11.3285 11.6252 11.4056 11.2504 11.5528 10.9013C11.7002 10.5521 11.9149 10.2356 12.1847 9.96949C12.4546 9.70356 12.7742 9.49334 13.1255 9.35105C13.4766 9.20868 13.8524 9.13701 14.2313 9.14011C14.6102 9.13701 14.986 9.20868 15.3371 9.35105C15.6884 9.49334 16.008 9.70356 16.2779 9.96949C16.5477 10.2356 16.7624 10.5521 16.9098 10.9013C17.057 11.2504 17.1341 11.6252 17.1365 12.004Z" fill="white"/>
</svg>

<svg xmlns="http://www.w3.org/2000/svg" width="24" height="24" fill="none" viewBox="0 0 24 24">
    <path fill="#fff" d="m12.097 5.853.135.012q.51.045 0 .029l-.635.006c-.383.012-.753.017-1.135.017l-.588.012H9.78c-.147 0-.27 0-.412.112a7.7 7.7 0 0 0-2.07 2.529c-.024.04-.077.088-.13.094l-2.74.353.001.006.005.005h.006q1.127.129 2.252.27.117.015.235.013l.012.011a.03.03 0 0 1 0 .024c-.635 1.764-.64 3.54 0 5.316v.012l-.006.006q-1.25.165-2.499.323l.006.012 2.746.323a.12.12 0 0 1 .088.065 7.6 7.6 0 0 0 2.135 2.588c.047.04.13.082.194.082q1.424.022 2.846.047c-.282.03-.558.053-.835.059l-.176.023-.141.018-.247.018c-.482.035-.965.07-1.441.117l-6.604.624-.282.029c-.2.024-.43.053-.641.059a.13.13 0 0 0-.065.023q-.038.025.006.024h.282c.335 0 .67.017 1 .041l.523.03q4.74.189 9.48.411l.347.024c.265.017.53.035.8.017h.035a7.77 7.77 0 0 0 5.11-2.123 7.6 7.6 0 0 0 2.4-5.598 7.58 7.58 0 0 0-4.34-6.775 8 8 0 0 0-3.846-.776q-1.532.082-3.064.141c-.206.012-.406.03-.6.024l-.764.035q-.844.047-1.688.076-2.361.117-4.722.218-.496.029-.93.03c-.047 0-.058.011-.017.04l.047.012c.206 0 .411.018.617.041l.412.042q3.185.31 6.369.629c.47.047.964.082 1.488.117.129 0 .252.012.382.03l.4.03.353.029zm5.04 6.151a2.884 2.884 0 0 1-2.906 2.858 2.88 2.88 0 0 1-2.905-2.858 2.88 2.88 0 0 1 2.905-2.864 2.88 2.88 0 0 1 2.906 2.864"/>
</svg>
